X: 43597
T: Young Tom Ennis
R: jig
M: 6/8
K: Adorian
B|cBA BcB|AGE GAB|cBA Bed|cAA A2B|
cBA BcB|AGE GAB|cde dBG|ABA A2:|
f|g2e age|dBG Gef|g2e agf|efg a2b|
g2e age|dBG GAB|cBA Bed|cAA A2:|

